assets/icons/dark/icon-photo.svg

<svg width="42" height="40" viewBox="0 0 42 40" fill="none" xmlns="http://www.w3.org/2000/svg">
<path opacity="0.05" fill-rule="evenodd" clip-rule="evenodd" d="M1.5 10.8982C1.5 9.79365 2.39543 8.89822 3.5 8.89822H38.3C39.4046 8.89822 40.3 9.79365 40.3 10.8982V31.8871C40.3 32.9917 39.4046 33.8871 38.3 33.8871H24.2108C28.4393 32.5311 31.5 28.5686 31.5 23.8916C31.5 18.0951 26.799 13.3962 21 13.3962C15.201 13.3962 10.5 18.0951 10.5 23.8916C10.5 28.5686 13.5607 32.5311 17.7892 33.8871H3.5C2.39543 33.8871 1.5 32.9917 1.5 31.8871V10.8982ZM21 28.8893C23.7614 28.8893 26 26.6517 26 23.8916C26 21.1314 23.7614 18.8938 21 18.8938C18.2386 18.8938 16 21.1314 16 23.8916C16 26.6517 18.2386 28.8893 21 28.8893Z" fill="#0D86FF"/>
<path d="M2.04688 25.5655C2.04688 25.8199 1.84039 26.0263 1.58594 26.0263C1.33149 26.0263 1.125 25.8199 1.125 25.5655V23.1966C1.125 22.942 1.33145 22.7359 1.58594 22.7359C1.84043 22.7359 2.04688 22.942 2.04688 23.1966V25.5655Z" fill="#0D86FF" stroke="#0D86FF" stroke-width="0.25"/>
<path d="M38.7448 8.72368H36.3178V8.44731C36.3178 7.66458 35.6806 7.02735 34.8972 7.02735H34.6484V6.31996C34.6484 5.53692 34.0109 4.89999 33.2278 4.89999H30.4285C29.6454 4.89999 29.0079 5.53692 29.0079 6.31996V7.02735H28.7591C27.9758 7.02735 27.3386 7.66427 27.3386 8.44731V8.72368H18.9984V8.1136C18.9984 7.33087 18.3612 6.69363 17.5778 6.69363H16.448C15.6649 6.69363 15.0274 7.33056 15.0274 8.1136V8.72368H13.6566V7.27931C13.6566 6.49658 13.0194 5.85935 12.236 5.85935H6.09828C5.31519 5.85935 4.67768 6.49658 4.67768 7.27931V8.72368H3.25525C2.01166 8.72368 1 9.7352 1 10.9779V20.6459C1 20.9696 1.26245 21.2316 1.58594 21.2316C1.90943 21.2316 2.17188 20.9696 2.17188 20.6459V15.0838H5.37867C5.63654 16.0276 6.50172 16.7237 7.5265 16.7237C8.55159 16.7237 9.41646 16.0276 9.67433 15.0838H14.3277C11.6247 17.1148 9.87331 20.3458 9.87331 23.9781C9.87331 26.363 10.6283 28.5745 11.9116 30.3874H2.17188V28.1161C2.17188 27.7924 1.90943 27.5304 1.58594 27.5304C1.26245 27.5304 1 27.7924 1 28.1161V31.7796C1 33.0226 2.01166 34.0339 3.25525 34.0339H16.2491C17.6907 34.7172 19.3014 35.1 21 35.1C22.6993 35.1 24.3103 34.7169 25.7522 34.033C25.7568 34.0333 25.7611 34.0339 25.7657 34.0339H38.7448C39.9884 34.0339 41.0001 33.0226 41.0001 31.7796V10.9779C41.0001 9.7352 39.9884 8.72368 38.7448 8.72368V8.72368ZM30.1797 6.31996C30.1797 6.183 30.2914 6.07135 30.4288 6.07135H33.2278C33.3649 6.07135 33.4766 6.18269 33.4766 6.31996V7.02735H30.1801V6.31996H30.1797ZM28.5104 8.44731C28.5104 8.31035 28.6221 8.1987 28.7595 8.1987H34.8972C35.0342 8.1987 35.1459 8.31035 35.1459 8.44731V8.72368H28.5107V8.44731H28.5104ZM16.1993 8.1136C16.1993 7.97664 16.311 7.86499 16.448 7.86499H17.5778C17.7151 7.86499 17.8265 7.97664 17.8265 8.1136V8.72368H16.1993V8.1136ZM5.84956 7.27931C5.84956 7.14235 5.96125 7.0307 6.09828 7.0307H12.2363C12.3733 7.0307 12.485 7.14235 12.485 7.27931V8.72368H5.84956V7.27931ZM7.5265 15.5523C6.94514 15.5523 6.47181 15.0795 6.47181 14.4982C6.47181 13.917 6.94514 13.4439 7.5265 13.4439C8.10817 13.4439 8.58119 13.917 8.58119 14.4982C8.58119 15.0795 8.10817 15.5523 7.5265 15.5523V15.5523ZM9.67433 13.9124C9.41646 12.9686 8.55159 12.2725 7.5265 12.2725C6.50141 12.2725 5.63654 12.9686 5.37867 13.9124H2.17188V10.9779C2.17188 10.381 2.65802 9.89504 3.25525 9.89504H38.7448C39.3421 9.89504 39.8282 10.381 39.8282 10.9779V13.9124H38.0844V11.7845C38.0844 11.4611 37.822 11.1988 37.4985 11.1988H32.0453C31.7218 11.1988 31.4594 11.4611 31.4594 11.7845V13.9124H25.7266C24.2627 13.2255 22.651 12.8567 21 12.8567C19.31 12.8567 17.7072 13.2358 16.2713 13.9124H9.67433V13.9124ZM32.6312 13.9124V12.3701H36.9125V13.9124H32.6312V13.9124ZM3.25525 32.8625C2.65802 32.8625 2.17188 32.3766 2.17188 31.7796V31.5588H12.8665C13.3099 32.034 13.7942 32.4705 14.3139 32.8625H3.25525ZM11.0452 23.9784C11.0452 18.4917 15.5111 14.0281 21 14.0281C23.847 14.0281 26.5637 15.2512 28.454 17.3838C28.6685 17.626 29.0387 17.6486 29.281 17.4338C29.5233 17.2193 29.5456 16.8494 29.3311 16.6071C28.8284 16.0401 28.273 15.5313 27.6761 15.0838H39.8282V30.3874H30.0885C30.9833 29.1233 31.6205 27.6652 31.9247 26.0897H33.4576C34.3219 26.0897 35.0253 25.3868 35.0253 24.5227V23.0636C35.0253 22.1994 34.3222 21.4966 33.4576 21.4966H31.8448C31.6318 20.5648 31.301 19.661 30.8569 18.8159C30.7065 18.5296 30.3522 18.4191 30.0659 18.5698C29.7794 18.7202 29.6689 19.074 29.8193 19.3605C30.5621 20.7747 30.9549 22.3716 30.9549 23.9784C30.9549 29.4652 26.4892 33.9289 21 33.9289C15.5111 33.9289 11.0452 29.4649 11.0452 23.9784V23.9784ZM32.0483 22.6677H33.4576C33.6758 22.6677 33.8535 22.8452 33.8535 23.0633V24.5227C33.8535 24.7408 33.6758 24.9183 33.4576 24.9183H32.0865C32.1127 24.6084 32.1268 24.2948 32.1268 23.9781C32.1268 23.5398 32.1002 23.1021 32.0483 22.6677V22.6677ZM38.7448 32.8625H27.6861C28.2059 32.4705 28.6902 32.034 29.1336 31.5588H39.8282V31.7796C39.8282 32.3766 39.3421 32.8625 38.7448 32.8625V32.8625Z" fill="#0D86FF" stroke="#0D86FF" stroke-width="0.25"/>
<path d="M13.2412 23.9784C13.2412 19.7021 16.7216 16.223 20.9998 16.223C25.278 16.223 28.7584 19.7021 28.7584 23.9784C28.7584 28.2544 25.278 31.7336 20.9998 31.7336C16.7216 31.7336 13.2412 28.2544 13.2412 23.9784V23.9784ZM14.163 23.9784C14.163 27.7466 17.2299 30.8121 20.9998 30.8121C24.7697 30.8121 27.8365 27.7466 27.8365 23.9784C27.8365 20.2102 24.7697 17.1445 20.9998 17.1445C17.2299 17.1445 14.163 20.2102 14.163 23.9784Z" fill="#0D86FF" stroke="#0D86FF" stroke-width="0.25"/>
<path d="M15.6191 23.9784C15.6191 21.0126 18.0332 18.5995 21.0001 18.5995C23.9673 18.5995 26.3814 21.0126 26.3814 23.9784C26.3814 26.9443 23.9673 29.3571 21.0001 29.3571C18.0329 29.3571 15.6191 26.9443 15.6191 23.9784ZM16.541 23.9784C16.541 26.4363 18.5412 28.4356 21.0001 28.4356C23.459 28.4356 25.4595 26.4363 25.4595 23.9784C25.4595 21.5203 23.459 19.521 21.0001 19.521C18.5412 19.521 16.541 21.5203 16.541 23.9784Z" fill="#0D86FF" stroke="#0D86FF" stroke-width="0.25"/>
</svg>

<?xml version="1.0" encoding="utf-8"?>
<!-- Generator: Adobe Illustrator 24.2.3, SVG Export Plug-In . SVG Version: 6.00 Build 0)  -->
<svg version="1.1" id="Capa_1" xmlns="http://www.w3.org/2000/svg" xmlns:xlink="http://www.w3.org/1999/xlink" x="0px" y="0px"
	 viewBox="0 0 42 40" style="enable-background:new 0 0 42 40;" xml:space="preserve">
<style type="text/css">
	.st0{opacity:5.000000e-02;fill-rule:evenodd;clip-rule:evenodd;fill:#1DA1F2;enable-background:new    ;}
	.st1{fill:#1DA1F2;stroke:#1DA1F2;stroke-width:0.25;}
</style>
<path class="st0" d="M1.5,10.9c0-1.1,0.9-2,2-2h34.8c1.1,0,2,0.9,2,2v21c0,1.1-0.9,2-2,2H24.2c4.2-1.4,7.3-5.3,7.3-10
	c0-5.8-4.7-10.5-10.5-10.5s-10.5,4.7-10.5,10.5c0,4.7,3.1,8.6,7.3,10H3.5c-1.1,0-2-0.9-2-2V10.9z M21,28.9c2.8,0,5-2.2,5-5
	c0-2.8-2.2-5-5-5s-5,2.2-5,5C16,26.7,18.2,28.9,21,28.9z"/>
<path class="st1" d="M2,25.6C2,25.8,1.8,26,1.6,26s-0.5-0.2-0.5-0.5v-2.4c0-0.3,0.2-0.5,0.5-0.5S2,22.9,2,23.2V25.6z"/>
<path class="st1" d="M38.7,8.7h-2.4V8.4c0-0.8-0.6-1.4-1.4-1.4h-0.2V6.3c0-0.8-0.6-1.4-1.4-1.4h-2.8c-0.8,0-1.4,0.6-1.4,1.4V7h-0.2
	c-0.8,0-1.4,0.6-1.4,1.4v0.3H19V8.1c0-0.8-0.6-1.4-1.4-1.4h-1.1c-0.8,0-1.4,0.6-1.4,1.4v0.6h-1.4V7.3c0-0.8-0.6-1.4-1.4-1.4H6.1
	c-0.8,0-1.4,0.6-1.4,1.4v1.4H3.3C2,8.7,1,9.7,1,11v9.7c0,0.3,0.3,0.6,0.6,0.6s0.6-0.3,0.6-0.6v-5.6h3.2c0.3,0.9,1.1,1.6,2.1,1.6
	c1,0,1.9-0.7,2.1-1.6h4.7c-2.7,2-4.5,5.3-4.5,8.9c0,2.4,0.8,4.6,2,6.4H2.2v-2.3c0-0.3-0.3-0.6-0.6-0.6S1,27.8,1,28.1v3.7
	C1,33,2,34,3.3,34h13c1.4,0.7,3.1,1.1,4.8,1.1c1.7,0,3.3-0.4,4.8-1.1c0,0,0,0,0,0h13c1.2,0,2.3-1,2.3-2.3V11C41,9.7,40,8.7,38.7,8.7
	L38.7,8.7z M30.2,6.3c0-0.1,0.1-0.2,0.2-0.2h2.8c0.1,0,0.2,0.1,0.2,0.2V7h-3.3L30.2,6.3L30.2,6.3z M28.5,8.4c0-0.1,0.1-0.2,0.2-0.2
	h6.1c0.1,0,0.2,0.1,0.2,0.2v0.3h-6.6L28.5,8.4L28.5,8.4z M16.2,8.1c0-0.1,0.1-0.2,0.2-0.2h1.1c0.1,0,0.2,0.1,0.2,0.2v0.6h-1.6V8.1z
	 M5.8,7.3C5.8,7.1,6,7,6.1,7h6.1c0.1,0,0.2,0.1,0.2,0.2v1.4H5.8V7.3z M7.5,15.6c-0.6,0-1.1-0.5-1.1-1.1c0-0.6,0.5-1.1,1.1-1.1
	c0.6,0,1.1,0.5,1.1,1.1C8.6,15.1,8.1,15.6,7.5,15.6L7.5,15.6z M9.7,13.9c-0.3-0.9-1.1-1.6-2.1-1.6S5.6,13,5.4,13.9H2.2V11
	c0-0.6,0.5-1.1,1.1-1.1h35.5c0.6,0,1.1,0.5,1.1,1.1v2.9h-1.7v-2.1c0-0.3-0.3-0.6-0.6-0.6H32c-0.3,0-0.6,0.3-0.6,0.6v2.1h-5.7
	c-1.5-0.7-3.1-1.1-4.7-1.1c-1.7,0-3.3,0.4-4.7,1.1H9.7L9.7,13.9z M32.6,13.9v-1.5h4.3v1.5H32.6L32.6,13.9z M3.3,32.9
	c-0.6,0-1.1-0.5-1.1-1.1v-0.2h10.7c0.4,0.5,0.9,0.9,1.4,1.3H3.3z M11,24c0-5.5,4.5-10,10-10c2.8,0,5.6,1.2,7.5,3.4
	c0.2,0.2,0.6,0.3,0.8,0c0.2-0.2,0.3-0.6,0.1-0.8c-0.5-0.6-1.1-1.1-1.7-1.5h12.2v15.3h-9.7c0.9-1.3,1.5-2.7,1.8-4.3h1.5
	c0.9,0,1.6-0.7,1.6-1.6v-1.5c0-0.9-0.7-1.6-1.6-1.6h-1.6c-0.2-0.9-0.5-1.8-1-2.7c-0.2-0.3-0.5-0.4-0.8-0.2c-0.3,0.2-0.4,0.5-0.2,0.8
	c0.7,1.4,1.1,3,1.1,4.6c0,5.5-4.5,10-10,10C15.5,33.9,11,29.5,11,24L11,24z M32,22.7h1.4c0.2,0,0.4,0.2,0.4,0.4v1.5
	c0,0.2-0.2,0.4-0.4,0.4h-1.4c0-0.3,0-0.6,0-0.9C32.1,23.5,32.1,23.1,32,22.7L32,22.7z M38.7,32.9H27.7c0.5-0.4,1-0.8,1.4-1.3h10.7
	v0.2C39.8,32.4,39.3,32.9,38.7,32.9L38.7,32.9z"/>
<path class="st1" d="M13.2,24c0-4.3,3.5-7.8,7.8-7.8s7.8,3.5,7.8,7.8c0,4.3-3.5,7.8-7.8,7.8S13.2,28.3,13.2,24L13.2,24z M14.2,24
	c0,3.8,3.1,6.8,6.8,6.8s6.8-3.1,6.8-6.8s-3.1-6.8-6.8-6.8S14.2,20.2,14.2,24z"/>
<path class="st1" d="M15.6,24c0-3,2.4-5.4,5.4-5.4c3,0,5.4,2.4,5.4,5.4c0,3-2.4,5.4-5.4,5.4S15.6,26.9,15.6,24z M16.5,24
	c0,2.5,2,4.5,4.5,4.5s4.5-2,4.5-4.5c0-2.5-2-4.5-4.5-4.5S16.5,21.5,16.5,24z"/>
</svg>
